elementary-icon-theme/elementary/panel/22/audio-volume-muted-blocked-panel.svg

<?xml version="1.0" encoding="UTF-8" standalone="no"?>
<!-- Created with Inkscape (http://www.inkscape.org/) -->
<svg
   xmlns:svg="http://www.w3.org/2000/svg"
   xmlns="http://www.w3.org/2000/svg"
   xmlns:xlink="http://www.w3.org/1999/xlink"
   version="1.0"
   width="22"
   height="22"
   id="svg3208">
  <defs
     id="defs3210">
    <linearGradient
       id="linearGradient3187">
      <stop
         id="stop3189"
         style="stop-color:#a60000;stop-opacity:1"
         offset="0" />
      <stop
         id="stop3191"
         style="stop-color:#ff1313;stop-opacity:1"
         offset="1" />
    </linearGradient>
    <linearGradient
       x1="9"
       y1="3"
       x2="9"
       y2="21"
       id="linearGradient3190"
       xlink:href="#linearGradient3187"
       gradientUnits="userSpaceOnUse"
       gradientTransform="translate(-1.9999384,-1)" />
  </defs>
  <g
     id="layer1">
    <path
       d="M 8.96875,5 C 8.7182648,5.0170956 8.4836563,5.1288139 8.3125,5.3125 L 4.625,9 L 3,9 C 2.7338847,8.997032 2.4778027,9.1014355 2.2896191,9.2896191 C 2.1014355,9.4778027 1.997032,9.7338847 2,10 L 2,15 C 1.997032,15.266115 2.1014355,15.522197 2.2896191,15.710381 C 2.4778027,15.898564 2.7338847,16.002968 3,16 L 4.625,16 L 8.3125,19.6875 C 8.5939097,19.968266 9.0160692,20.053265 9.3842079,19.903283 C 9.7523466,19.753301 9.994915,19.397486 10,19 L 10,13 C 9.997032,13.266115 10.101436,13.522197 10.289619,13.710381 C 10.477803,13.898564 10.733885,14.002968 11,14 C 11.666667,14 12.333333,14 13,14 C 13.530951,14.006608 13.972375,13.592773 14,13.0625 C 14.027625,13.592773 14.469049,14.006608 15,14 C 15.666667,14 16.333333,14 17,14 C 17.530951,14.006608 17.972375,13.592773 18,13.0625 C 18.027625,13.592773 18.469049,14.006608 19,14 C 19.666667,14 20.333333,14 21,14 C 21.266115,14.002968 21.522197,13.898564 21.710381,13.710381 C 21.898564,13.522197 22.002968,13.266115 22,13 C 22,12.666667 22,12.333333 22,12 C 22.002968,11.733885 21.898564,11.477803 21.710381,11.289619 C 21.522197,11.101436 21.266115,10.997032 21,11 C 20.333333,11 19.666667,11 19,11 C 18.469049,10.993392 18.027625,11.407227 18,11.9375 C 17.972375,11.407227 17.530951,10.993392 17,11 C 16.333333,11 15.666667,11 15,11 C 14.469049,10.993392 14.027625,11.407227 14,11.9375 C 13.972375,11.407227 13.530951,10.993392 13,11 C 12.333333,11 11.666667,11 11,11 C 10.469049,10.993392 10.027625,11.407227 10,11.9375 L 10,6 C 10.003262,5.7283126 9.8946085,5.4672486 9.6995499,5.2781009 C 9.5044914,5.0889532 9.2402085,4.9883822 8.96875,5 z"
       transform="translate(-0.9999384,-1)"
       id="path3206"
       style="opacity:0.1;fill:#f50000;fill-opacity:1;fill-rule:evenodd;stroke:none" />
    <path
       d="M 2.0000616,10 L 2.0000616,15 L 4.0000616,15 L 8.0000616,19 L 8.0000616,6 L 4.0000616,10 L 2.0000616,10 z M 10.000062,12 C 10.666729,12 11.333395,12 12.000062,12 C 12.000062,12.333333 12.000062,12.666667 12.000062,13 C 11.333395,13 10.666729,13 10.000062,13 C 10.000062,12.666667 10.000062,12.333333 10.000062,12 z M 18.000062,12 C 18.666729,12 19.333395,12 20.000062,12 C 20.000062,12.333333 20.000062,12.666667 20.000062,13 C 19.333395,13 18.666729,13 18.000062,13 C 18.000062,12.666667 18.000062,12.333333 18.000062,12 z M 14.000062,12 C 14.666729,12 15.333395,12 16.000062,12 C 16.000062,12.333333 16.000062,12.666667 16.000062,13 C 15.333395,13 14.666729,13 14.000062,13 C 14.000062,12.666667 14.000062,12.333333 14.000062,12 z"
       id="path2387-4"
       style="opacity:0.7;fill:#ffffff;fill-opacity:1;fill-rule:evenodd;stroke:none" />
    <path
       d="M 2.0000616,9 L 2.0000616,14 L 4.0000616,14 L 8.0000616,18 L 8.0000616,5 L 4.0000616,9 L 2.0000616,9 z M 10.000062,11 C 10.666729,11 11.333395,11 12.000062,11 C 12.000062,11.333333 12.000062,11.666667 12.000062,12 C 11.333395,12 10.666729,12 10.000062,12 C 10.000062,11.666667 10.000062,11.333333 10.000062,11 z M 18.000062,11 C 18.666729,11 19.333395,11 20.000062,11 C 20.000062,11.333333 20.000062,11.666667 20.000062,12 C 19.333395,12 18.666729,12 18.000062,12 C 18.000062,11.666667 18.000062,11.333333 18.000062,11 z M 14.000062,11 C 14.666729,11 15.333395,11 16.000062,11 C 16.000062,11.333333 16.000062,11.666667 16.000062,12 C 15.333395,12 14.666729,12 14.000062,12 C 14.000062,11.666667 14.000062,11.333333 14.000062,11 z"
       id="path2387"
       style="opacity:0.8;fill:url(#linearGradient3190);fill-opacity:1;fill-rule:evenodd;stroke:none" />
  </g>
</svg>

<?xml version="1.0" encoding="UTF-8" standalone="no"?>
<!-- Created with Inkscape (http://www.inkscape.org/) -->

<svg
   xmlns:dc="http://purl.org/dc/elements/1.1/"
   xmlns:cc="http://creativecommons.org/ns#"
   xmlns:rdf="http://www.w3.org/1999/02/22-rdf-syntax-ns#"
   xmlns:svg="http://www.w3.org/2000/svg"
   xmlns="http://www.w3.org/2000/svg"
   xmlns:xlink="http://www.w3.org/1999/xlink"
   xmlns:sodipodi="http://sodipodi.sourceforge.net/DTD/sodipodi-0.dtd"
   xmlns:inkscape="http://www.inkscape.org/namespaces/inkscape"
   version="1.0"
   width="22"
   height="22"
   id="svg3208"
   inkscape:version="0.48.0 r9654"
   sodipodi:docname="audio-volume-muted-blocked-panel.svg">
  <metadata
     id="metadata14">
    <rdf:RDF>
      <cc:Work
         rdf:about="">
        <dc:format>image/svg+xml</dc:format>
        <dc:type
           rdf:resource="http://purl.org/dc/dcmitype/StillImage" />
      </cc:Work>
    </rdf:RDF>
  </metadata>
  <sodipodi:namedview
     pagecolor="#ffffff"
     bordercolor="#666666"
     borderopacity="1"
     objecttolerance="10"
     gridtolerance="10"
     guidetolerance="10"
     inkscape:pageopacity="0"
     inkscape:pageshadow="2"
     inkscape:window-width="640"
     inkscape:window-height="480"
     id="namedview12"
     showgrid="false"
     inkscape:zoom="12.272727"
     inkscape:cx="11"
     inkscape:cy="11"
     inkscape:window-x="0"
     inkscape:window-y="24"
     inkscape:window-maximized="0"
     inkscape:current-layer="svg3208" />
  <defs
     id="defs3210">
    <linearGradient
       id="linearGradient3187">
      <stop
         id="stop3189"
         style="stop-color:#a60000;stop-opacity:1"
         offset="0" />
      <stop
         id="stop3191"
         style="stop-color:#ff1313;stop-opacity:1"
         offset="1" />
    </linearGradient>
    <linearGradient
       x1="9"
       y1="3"
       x2="9"
       y2="21"
       id="linearGradient3190"
       xlink:href="#linearGradient3187"
       gradientUnits="userSpaceOnUse"
       gradientTransform="translate(-1.9999384,-1)" />
    <linearGradient
       inkscape:collect="always"
       xlink:href="#linearGradient3187"
       id="linearGradient2991"
       gradientUnits="userSpaceOnUse"
       gradientTransform="translate(-1.9999384,-1)"
       x1="9"
       y1="3"
       x2="9"
       y2="21" />
    <linearGradient
       inkscape:collect="always"
       xlink:href="#linearGradient3187"
       id="linearGradient2994"
       gradientUnits="userSpaceOnUse"
       gradientTransform="translate(-1.9999384,-1)"
       x1="9"
       y1="3"
       x2="9"
       y2="21" />
  </defs>
  <path
     inkscape:connector-curvature="0"
     style="opacity:0.7;fill:#ffffff;fill-opacity:1;fill-rule:evenodd;stroke:none"
     id="path2387-4"
     d="m 2.0000616,10 0,5 2,0 4,4 0,-13 -4,4 -2,0 z m 8.0000004,2 c 0.666667,0 1.333333,0 2,0 0,0.333333 0,0.666667 0,1 -0.666667,0 -1.333333,0 -2,0 0,-0.333333 0,-0.666667 0,-1 z m 8,0 c 0.666667,0 1.333333,0 2,0 0,0.333333 0,0.666667 0,1 -0.666667,0 -1.333333,0 -2,0 0,-0.333333 0,-0.666667 0,-1 z m -4,0 c 0.666667,0 1.333333,0 2,0 0,0.333333 0,0.666667 0,1 -0.666667,0 -1.333333,0 -2,0 0,-0.333333 0,-0.666667 0,-1 z" />
  <path
     inkscape:connector-curvature="0"
     style="opacity:0.8;fill:url(#linearGradient2994);fill-opacity:1;fill-rule:evenodd;stroke:none"
     id="path2387"
     d="m 2.0000616,9 0,5 2,0 4,4 0,-13 -4,4 -2,0 z m 8.0000004,2 c 0.666667,0 1.333333,0 2,0 0,0.333333 0,0.666667 0,1 -0.666667,0 -1.333333,0 -2,0 0,-0.333333 0,-0.666667 0,-1 z m 8,0 c 0.666667,0 1.333333,0 2,0 0,0.333333 0,0.666667 0,1 -0.666667,0 -1.333333,0 -2,0 0,-0.333333 0,-0.666667 0,-1 z m -4,0 c 0.666667,0 1.333333,0 2,0 0,0.333333 0,0.666667 0,1 -0.666667,0 -1.333333,0 -2,0 0,-0.333333 0,-0.666667 0,-1 z" />
</svg>
